X:1
T:Title
%%score { ( 1 2 ) | ( 3 4 ) }
L:1/8
M:4/4
K:F
V:1 treble nm="Grand Piano"
V:2 treble 
V:3 bass 
V:4 bass 
V:1
 z4 z2[Q:1/4=100] z G | A2 B2 AGFA | c2 d2 c3 A | [Ac]2 [GB][FA] [EG]2 [FA]B | A4 z2 z G | %5
 A2 B2 AGFA | [Ac]2 [Bd]2 [Ac]3 A | G2 c2 [D=B][Ec][Fd][Ge] | [Ec]4 z2 dc | c2 [GB]2 [FA]3 [EG] | %10
 [FA][GB][Ac][Bd] [Ac]2 Ac | f2 ed cA[CF][DG] |[M:7/8] A2 G2 F3 |] %13
V:2
 z4 z2 F2 | x8 | x8 | x8 | z4 z2 F2 | x8 | x8 | x8 | z4 z2 E2 | x8 | x8 | x8 |[M:7/8] x7 |] %13
V:3
 z4 z2 A,B, | [F,CF]2 [F,DF]2 [F,CF][F,B,C][F,A,C][F,CF] | [F,A,F]2 [F,B,F]2 [F,A,F]3 [F,CF] | %3
 [C,C]2 [C,C]2 [C,C]2 z[K:treble] G | [F,CF]4 z2[K:bass] A,B, | %5
 [F,CF]2 [F,DF]2 [F,CF][F,B,C][F,A,C][F,CF] | [F,F]2 [F,F]2 [F,F]3 [F,CF] | %7
 [G,CE]2 [G,E]2 [G,,G,]2 [G,,G,]2 | [C,G,]4 z2 [C,B,]2 | [F,A,F]2 [E,C]2 [F,C]3 [C,C] | z4 z2 .C2 | %11
 z2 .C2 z4 |[M:7/8] [C,F,C]2 [C,B,C]2 [F,A,C]3 |] %13
V:4
 z4 z2 F,2 | x8 | x8 | z4 z2 [C,C]2[K:treble] | z4 z2[K:bass] F,2 | x8 | x8 | x8 | x8 | x8 | %10
 [F,C][F,C][F,F][F,F] [F,F]2 [F,F]-[F,A,F] | [F,DF]2 [F,F]-[F,B,F] [F,A,F][F,C][A,,F,][B,,F,] | %12
[M:7/8] x7 |] %13

